X: 37228
T: Siubhan Ni Dhuibir
R: waltz
M: 3/4
K: Edorian
(E3/2B/B B3/2c/d|B3/2A/F E2E|E3E2) (B|e2e ddd|
c3/2B/A c2d|B3/2B2) (B|e2e ddd|c3/2B/A c2 d|
B3/2B) (E|E3/2B/B B3/2c/d|B3/2A/F E2E|E3E2)||

